X:20
T:Cumberland reel (Cercle Rosbif)
R:Cercle circassien
O:Irlande
Z:Transcrit et/ou corrigé par Michel BELLON - 2005-03-17
Z:Pour toute observation mailto:galouvielle@free.fr
M:2/4
L:1/8
K:G
V:1
"G"G>A BA|GA BG/B/|dB GB|[1 "D"A/G/A/B/ A2 :|[2 "D"A2 "G"G2|:
"G"de/f/ gf/e/|de ed|de/f/ gf/e/|dc B>c|dd "C"e>d|"Am"cB "D"AB/c/|"G"dB GB|"D"A2 "G"G2:|

%%footer $D   Galouvielle-MBe 2006 \nHanterdro (France)
